src/imgs/gmail.svg

<svg height="104" viewBox="0 0 50 50" width="104" xmlns="http://www.w3.org/2000/svg"><path d="m5.5 7c-2.480469 0-4.5 2.019531-4.5 4.5v.425781l24 17.074219 24-17.074219v-.425781c0-2.480469-2.019531-4.5-4.5-4.5zm.851563 2h37.292968l-18.644531 13zm-5.351563 5.027344v24.472656c0 2.480469 2.019531 4.5 4.5 4.5h39c2.480469 0 4.5-2.019531 4.5-4.5v-24.472656l-6 4.269531v22.703125h-36v-22.703125z"/></svg>

<?xml version="1.0" encoding="UTF-8"?>
<svg xmlns="http://www.w3.org/2000/svg" xmlns:xlink="http://www.w3.org/1999/xlink" viewBox="0 0 50 50" version="1.1" width="104px" height="104px">
<g id="surface1">
<path style=" " d="M 5.5 7 C 3.019531 7 1 9.019531 1 11.5 L 1 11.925781 L 25 29 L 49 11.925781 L 49 11.5 C 49 9.019531 46.980469 7 44.5 7 Z M 6.351563 9 L 43.644531 9 L 25 22 Z M 1 14.027344 L 1 38.5 C 1 40.980469 3.019531 43 5.5 43 L 44.5 43 C 46.980469 43 49 40.980469 49 38.5 L 49 14.027344 L 43 18.296875 L 43 41 L 7 41 L 7 18.296875 Z "/>
</g>
</svg>
